public/icons/result-oriented.svg

<svg width="81" height="80" viewBox="0 0 81 80" fill="none" xmlns="http://www.w3.org/2000/svg">
<rect x="2.30005" y="1.5" width="77" height="77" rx="38.5" fill="#E8F1FC"/>
<rect x="2.30005" y="1.5" width="77" height="77" rx="38.5" stroke="#093160" stroke-width="3"/>
<path d="M37.675 50.9375H50.175V54.0625H37.675V50.9375ZM31.425 50.9375H34.55V54.0625H31.425V50.9375ZM37.675 43.125H50.175V46.25H37.675V43.125ZM31.425 43.125H34.55V46.25H31.425V43.125ZM37.675 35.3125H50.175V38.4375H37.675V35.3125ZM31.425 35.3125H34.55V38.4375H31.425V35.3125Z" fill="#093160"/>
<path d="M54.8625 22.8125H50.175V21.25C50.175 20.4212 49.8458 19.6263 49.2598 19.0403C48.6737 18.4542 47.8789 18.125 47.05 18.125H34.55C33.7212 18.125 32.9264 18.4542 32.3403 19.0403C31.7543 19.6263 31.425 20.4212 31.425 21.25V22.8125H26.7375C25.9087 22.8125 25.1139 23.1417 24.5278 23.7278C23.9418 24.3138 23.6125 25.1087 23.6125 25.9375V58.75C23.6125 59.5788 23.9418 60.3737 24.5278 60.9597C25.1139 61.5458 25.9087 61.875 26.7375 61.875H54.8625C55.6913 61.875 56.4862 61.5458 57.0723 60.9597C57.6583 60.3737 57.9875 59.5788 57.9875 58.75V25.9375C57.9875 25.1087 57.6583 24.3138 57.0723 23.7278C56.4862 23.1417 55.6913 22.8125 54.8625 22.8125ZM34.55 21.25H47.05V27.5H34.55V21.25ZM54.8625 58.75H26.7375V25.9375H31.425V30.625H50.175V25.9375H54.8625V58.75Z" fill="#093160"/>
</svg>

<svg xmlns="http://www.w3.org/2000/svg" width="81" height="80" fill="none"><rect width="77" height="77" x="2.3" y="1.5" fill="#E8F1FC" rx="38.5"/><rect width="77" height="77" x="2.3" y="1.5" stroke="#093160" stroke-width="3" rx="38.5"/><path fill="#093160" d="M37.675 50.938h12.5v3.124h-12.5zm-6.25 0h3.125v3.124h-3.125zm6.25-7.813h12.5v3.125h-12.5zm-6.25 0h3.125v3.125h-3.125zm6.25-7.812h12.5v3.124h-12.5zm-6.25 0h3.125v3.124h-3.125z"/><path fill="#093160" d="M54.863 22.813h-4.688V21.25a3.125 3.125 0 0 0-3.125-3.125h-12.5a3.125 3.125 0 0 0-3.125 3.125v1.563h-4.687a3.125 3.125 0 0 0-3.125 3.125V58.75a3.125 3.125 0 0 0 3.125 3.125h28.124a3.125 3.125 0 0 0 3.125-3.125V25.938a3.125 3.125 0 0 0-3.125-3.125M34.55 21.25h12.5v6.25h-12.5zm20.313 37.5H26.737V25.938h4.687v4.687h18.75v-4.687h4.688z"/></svg>
